src/icons/actions/go-jump.svg

<?xml version="1.0" encoding="UTF-8" standalone="no"?>
<!-- Created with Inkscape (http://www.inkscape.org/) -->

<svg
   xmlns:dc="http://purl.org/dc/elements/1.1/"
   xmlns:cc="http://creativecommons.org/ns#"
   xmlns:rdf="http://www.w3.org/1999/02/22-rdf-syntax-ns#"
   xmlns:svg="http://www.w3.org/2000/svg"
   xmlns="http://www.w3.org/2000/svg"
   xmlns:xlink="http://www.w3.org/1999/xlink"
   xmlns:inkscape="http://www.inkscape.org/namespaces/inkscape"
   version="1.1"
   width="48"
   height="48"
   id="svg2395">
  <defs
     id="defs2397">
    <linearGradient
       id="linearGradient5105">
      <stop
         id="stop5107"
         style="stop-color:#000000;stop-opacity:1"
         offset="0" />
      <stop
         id="stop5109"
         style="stop-color:#000000;stop-opacity:0"
         offset="1" />
    </linearGradient>
    <radialGradient
       cx="11.25"
       cy="19.03125"
       r="8.0625"
       fx="11.25"
       fy="19.03125"
       id="radialGradient5855"
       xlink:href="#linearGradient5105"
       gradientUnits="userSpaceOnUse"
       gradientTransform="matrix(1,0,0,0.282946,0,13.64644)" />
    <linearGradient
       id="linearGradient3163">
      <stop
         id="stop3165"
         style="stop-color:#729fcf;stop-opacity:1"
         offset="0" />
      <stop
         id="stop3167"
         style="stop-color:#3465a4;stop-opacity:1"
         offset="1" />
    </linearGradient>
    <linearGradient
       x1="25"
       y1="9"
       x2="25"
       y2="37"
       id="linearGradient3169"
       xlink:href="#linearGradient3163"
       gradientUnits="userSpaceOnUse" />
    <linearGradient
       id="linearGradient5113">
      <stop
         id="stop5115"
         style="stop-color:#ffffff;stop-opacity:1"
         offset="0" />
      <stop
         id="stop5117"
         style="stop-color:#ffffff;stop-opacity:0"
         offset="1" />
    </linearGradient>
    <linearGradient
       x1="58.748795"
       y1="2.047786"
       x2="105.32369"
       y2="58.047787"
       id="linearGradient5862"
       xlink:href="#linearGradient5113"
       gradientUnits="userSpaceOnUse"
       gradientTransform="matrix(1.004639,0,0,1,-55.021331,-3.04779)" />
  </defs>
  <metadata
     id="metadata2400">
    <rdf:RDF>
      <cc:Work
         rdf:about="">
        <dc:format>image/svg+xml</dc:format>
        <dc:type
           rdf:resource="http://purl.org/dc/dcmitype/StillImage" />
      </cc:Work>
    </rdf:RDF>
  </metadata>
  <g
     id="layer1">
    <path
       d="m 19.3125,19.03125 a 8.0625,2.28125 0 1 1 -16.125,0 8.0625,2.28125 0 1 1 16.125,0 z"
       transform="matrix(2.5121226,0,0,2.410961,-4.51537,-13.87225)"
       id="path4346"
       style="opacity:0.16292138;color:#000000;fill:url(#radialGradient5855);fill-opacity:1;fill-rule:nonzero;stroke:none;stroke-width:1;marker:none;visibility:visible;display:inline;overflow:visible" />
    <path
       d="M 42.5,25.52548 30.46475,39.5 18.48982,25.52548 l 6.09179,0 c 2.0473,-5.48597 -2.1567,-8.9778 -7.03107,-8.9778 -3.46376,0 -8.16323,1.90496 -9.75068,6.6414 C 6.9742,25.6526 5.51992,24.5734 5.57612,22.43234 5.79365,14.17053 11.919,7.56333 21.06314,7.56333 c 9.14414,0 15.93686,7.09859 15.42377,17.96215 l 6.01309,0 z"
       inkscape:connector-curvature="0"
       id="path4972"
       style="color:#000000;fill:url(#linearGradient3169);fill-opacity:1;fill-rule:nonzero;stroke:#204a87;stroke-width:0.99999964;stroke-linecap:butt;stroke-linejoin:miter;stroke-miterlimit:4;stroke-opacity:1;stroke-dasharray:none;stroke-dashoffset:0;marker:none;visibility:visible;display:inline;overflow:visible" />
    <path
       d="m 40.38215,26.52548 -9.9174,11.5424 -9.85707,-11.5424 4.69895,0 C 27.78439,21 24.20791,15.62862 18,15.52859 14.10075,15.46576 12.05305,16.76164 9.3376,19 7.84959,20.22658 7.08988,22.63896 6.73938,23.51309 6.25882,23.53771 6.54136,20.83259 7,19.15015 8.67191,13.01699 13.84662,8.49937 21.18388,8.48567 c 7.33726,-0.0137 15.30137,5.0245 14.30303,18.03981 l 4.89524,0 z"
       inkscape:connector-curvature="0"
       id="path4980"
       style="opacity:0.35400008;color:#000000;fill:none;stroke:url(#linearGradient5862);stroke-width:0.99999958;stroke-linecap:butt;stroke-linejoin:miter;stroke-miterlimit:4;stroke-opacity:1;stroke-dasharray:none;stroke-dashoffset:0;marker:none;visibility:visible;display:inline;overflow:visible;enable-background:accumulate" />
  </g>
</svg>

<?xml version="1.0" encoding="UTF-8" standalone="no"?>
<!-- Created with Inkscape (http://www.inkscape.org/) -->
<svg
   xmlns:dc="http://purl.org/dc/elements/1.1/"
   xmlns:cc="http://creativecommons.org/ns#"
   xmlns:rdf="http://www.w3.org/1999/02/22-rdf-syntax-ns#"
   xmlns:svg="http://www.w3.org/2000/svg"
   xmlns="http://www.w3.org/2000/svg"
   xmlns:xlink="http://www.w3.org/1999/xlink"
   xmlns:sodipodi="http://sodipodi.sourceforge.net/DTD/sodipodi-0.dtd"
   xmlns:inkscape="http://www.inkscape.org/namespaces/inkscape"
   width="48px"
   height="48px"
   id="svg5140"
   sodipodi:version="0.32"
   inkscape:version="0.46"
   sodipodi:docname="go-jump.svg"
   inkscape:output_extension="org.inkscape.output.svg.inkscape"
   sodipodi:docbase="/home/dobey/Projects/gnome-icon-theme/scalable/actions">
  <defs
     id="defs5142">
    <linearGradient
       id="linearGradient3163">
      <stop
         style="stop-color:#729fcf;stop-opacity:1;"
         offset="0"
         id="stop3165" />
      <stop
         style="stop-color:#3465a4;stop-opacity:1;"
         offset="1"
         id="stop3167" />
    </linearGradient>
    <inkscape:perspective
       sodipodi:type="inkscape:persp3d"
       inkscape:vp_x="0 : 24 : 1"
       inkscape:vp_y="0 : 1000 : 0"
       inkscape:vp_z="48 : 24 : 1"
       inkscape:persp3d-origin="24 : 16 : 1"
       id="perspective20" />
    <linearGradient
       id="linearGradient5105"
       inkscape:collect="always">
      <stop
         id="stop5107"
         offset="0"
         style="stop-color:black;stop-opacity:1;" />
      <stop
         id="stop5109"
         offset="1"
         style="stop-color:black;stop-opacity:0;" />
    </linearGradient>
    <radialGradient
       inkscape:collect="always"
       xlink:href="#linearGradient5105"
       id="radialGradient5855"
       gradientUnits="userSpaceOnUse"
       gradientTransform="matrix(1,0,0,0.282946,0,13.64644)"
       cx="11.25"
       cy="19.03125"
       fx="11.25"
       fy="19.03125"
       r="8.0625" />
    <linearGradient
       id="linearGradient5113"
       inkscape:collect="always">
      <stop
         id="stop5115"
         offset="0"
         style="stop-color:white;stop-opacity:1;" />
      <stop
         id="stop5117"
         offset="1"
         style="stop-color:white;stop-opacity:0;" />
    </linearGradient>
    <linearGradient
       inkscape:collect="always"
       xlink:href="#linearGradient5113"
       id="linearGradient5862"
       gradientUnits="userSpaceOnUse"
       gradientTransform="matrix(1.004639,0,0,1,-55.021331,-3.04779)"
       x1="58.748795"
       y1="2.047786"
       x2="105.32369"
       y2="58.047787" />
    <linearGradient
       inkscape:collect="always"
       xlink:href="#linearGradient3163"
       id="linearGradient3169"
       x1="25"
       y1="9"
       x2="25"
       y2="37"
       gradientUnits="userSpaceOnUse" />
  </defs>
  <sodipodi:namedview
     id="base"
     pagecolor="#ffffff"
     bordercolor="#666666"
     borderopacity="1.0"
     inkscape:pageopacity="0.0"
     inkscape:pageshadow="2"
     inkscape:zoom="14"
     inkscape:cx="23.781286"
     inkscape:cy="23.233536"
     inkscape:current-layer="layer1"
     showgrid="true"
     inkscape:grid-bbox="true"
     inkscape:document-units="px"
     gridtolerance="10000"
     inkscape:window-width="1680"
     inkscape:window-height="978"
     inkscape:window-x="0"
     inkscape:window-y="47">
    <inkscape:grid
       type="xygrid"
       id="grid5148" />
  </sodipodi:namedview>
  <metadata
     id="metadata5145">
    <rdf:RDF>
      <cc:Work
         rdf:about="">
        <dc:format>image/svg+xml</dc:format>
        <dc:type
           rdf:resource="http://purl.org/dc/dcmitype/StillImage" />
        <cc:license
           rdf:resource="http://creativecommons.org/licenses/GPL/2.0/" />
        <dc:title>go-jump</dc:title>
        <dc:date>26.6.2007</dc:date>
        <dc:creator>
          <cc:Agent>
            <dc:title>Josef Vybíral</dc:title>
          </cc:Agent>
        </dc:creator>
        <dc:subject>
          <rdf:Bag>
            <rdf:li>go</rdf:li>
            <rdf:li>jump</rdf:li>
          </rdf:Bag>
        </dc:subject>
      </cc:Work>
    </rdf:RDF>
  </metadata>
  <g
     id="layer1"
     inkscape:label="Layer 1"
     inkscape:groupmode="layer">
    <path
       sodipodi:type="arc"
       style="opacity:0.16292138;color:#000000;fill:url(#radialGradient5855);fill-opacity:1;fill-rule:nonzero;stroke:none;stroke-width:1;stroke-linecap:butt;stroke-linejoin:miter;marker:none;marker-start:none;marker-mid:none;marker-end:none;stroke-miterlimit:4;stroke-dasharray:none;stroke-dashoffset:0;stroke-opacity:1;visibility:visible;display:inline;overflow:visible"
       id="path4346"
       sodipodi:cx="11.25"
       sodipodi:cy="19.03125"
       sodipodi:rx="8.0625"
       sodipodi:ry="2.28125"
       d="M 19.3125,19.03125 A 8.0625,2.28125 0 1 1 3.1875,19.03125 A 8.0625,2.28125 0 1 1 19.3125,19.03125 z"
       transform="matrix(2.5121226,0,0,2.410961,-4.51537,-13.87225)" />
    <path
       sodipodi:nodetypes="ccccssszcc"
       id="path4972"
       d="M 42.5,25.52548 L 30.46475,39.5 L 18.48982,25.52548 L 24.58161,25.52548 C 26.62891,20.03951 22.42491,16.54768 17.55054,16.54768 C 14.08678,16.54768 9.38731,18.45264 7.79986,23.18908 C 6.9742,25.6526 5.51992,24.5734 5.57612,22.43234 C 5.79365,14.17053 11.919,7.56333 21.06314,7.56333 C 30.20728,7.56333 37,14.66192 36.48691,25.52548 L 42.5,25.52548 z"
       style="color:#000000;fill:url(#linearGradient3169);fill-opacity:1;fill-rule:nonzero;stroke:#204a87;stroke-width:0.99999963999999997;stroke-linecap:butt;stroke-linejoin:miter;marker:none;marker-start:none;marker-mid:none;marker-end:none;stroke-miterlimit:4;stroke-dasharray:none;stroke-dashoffset:0;stroke-opacity:1;visibility:visible;display:inline;overflow:visible" />
    <path
       style="opacity:0.35400002;color:#000000;fill:none;fill-opacity:1;fill-rule:nonzero;stroke:url(#linearGradient5862);stroke-width:0.99999958;stroke-linecap:butt;stroke-linejoin:miter;marker:none;marker-start:none;marker-mid:none;marker-end:none;stroke-miterlimit:4;stroke-dasharray:none;stroke-dashoffset:0;stroke-opacity:1;visibility:visible;display:inline;overflow:visible;enable-background:accumulate"
       d="M 40.38215,26.52548 L 30.46475,38.06788 L 20.60768,26.52548 L 25.30663,26.52548 C 27.78439,21 24.20791,15.62862 18,15.52859 C 14.10075,15.46576 12.05305,16.76164 9.3376,19 C 7.84959,20.22658 7.08988,22.63896 6.73938,23.51309 C 6.25882,23.53771 6.54136,20.83259 7,19.15015 C 8.67191,13.01699 13.84662,8.49937 21.18388,8.48567 C 28.52114,8.47197 36.48525,13.51017 35.48691,26.52548 L 40.38215,26.52548 z"
       id="path4980"
       sodipodi:nodetypes="ccccsscszcc" />
  </g>
</svg>
